X:1
T:My Love She's But a Lassie Yet
L:1/8
Q:1/8=240
M:2/4
I:linebreak $
K:D
V:1 treble 
V:1
 f/e/ | dDFA | dD D d/c/ | dDFA | eE EB/c/ | dDFA | dgfe | d/c/B/A/ B>c | dD D :| f/g/ |$ afge | %11
 fd d g/f/ | afgf | eE Ef/g/ | afge | fd !fermata!e z/ c/ | d/c/B/A/ Bc | dD D :| %18
